X: 15
M: 2/4
L: 1/16
K: G
V: 1
|:\
|:\
cBcd c4 | BABc B2d2 | d2g2c2B2 | AGAB A4 |\
|: "Mineur"\
d6 e2 | {d}c6 d2 | {c}B2AB c2B2 | AG^FG AEDC |\
[|\
f6 g2 | {f}e6 f2 | dced fedc | BAcB AGFE |\
V: 2 clef=bass middle=d
|:\
g4 G2G2 | c4 c2c2 | c4 d2D2 | G4 z4 | g4 G2G2 | c4 c2c2 |
c4 d2D2 | G8 :|\
|:\
d4 D2D2 | g4 G2G2 | G2B2c2^c2 | d4 dcBA | G2g2 G4 |
c4 c2c2 | c4 d2D2 | G4 z4 :|\
[K:Gm]\
|: "Mineur"z2g2b2g2 | z2a2^f2d2 | g4 ^f2g2 | d2d'2 c'4 |
b4 c'4 | d'4 e'4 | c'4 d'2d2 | g4 G4 |]\
[| z2b2d'2b2 | z2c'2a2f2 | b6 e2 |
f4 z4 | d4 e4 | f4 g4 | e4 f2F2 | B2b2 "_Da Capo"d'c'ba |]


